dist/svgs/crypto-icons/icons/clo.svg

<?xml version="1.0" encoding="UTF-8" standalone="yes"?>
<svg xmlns="http://www.w3.org/2000/svg" xmlns:xlink="http://www.w3.org/1999/xlink" width="468px" height="510.66666666666663px" viewBox="0 0 351 383" version="1.1">
  <g id="surface1">
    <path style=" stroke:none;fill-rule:nonzero;fill:rgb(0%,0%,0%);fill-opacity:1;" d="M 63.503906 131.34375 L 88.632812 163.742188 C 85.324219 169.691406 83.351562 176.964844 83.351562 184.238281 L 0.675781 184.238281 L 0.675781 13.65625 C 0.675781 3.738281 11.265625 -2.871094 20.523438 2.417969 L 174.609375 87.707031 L 143.53125 141.921875 C 138.894531 139.9375 134.273438 139.277344 128.980469 139.277344 C 123.6875 139.277344 119.050781 140.601562 114.429688 141.921875 L 89.960938 110.1875 L 109.792969 112.832031 C 113.769531 113.492188 118.394531 112.171875 121.699219 109.527344 C 125.003906 106.882812 126.992188 102.914062 127.648438 98.285156 C 128.324219 89.03125 122.371094 81.09375 113.097656 79.773438 L 53.589844 72.5 C 49.609375 71.839844 44.988281 73.160156 41.683594 75.804688 C 38.378906 79.113281 36.390625 83.078125 35.730469 87.046875 L 28.449219 146.550781 C 27.132812 155.808594 33.742188 164.402344 42.339844 165.726562 C 51.601562 166.386719 59.542969 160.4375 60.859375 151.179688 Z M 121.699219 229.859375 C 124.34375 230.519531 126.332031 230.519531 128.980469 230.519531 C 131.628906 230.519531 134.933594 230.519531 138.238281 229.859375 L 174.609375 294.652344 L 20.523438 380.605469 C 11.265625 385.894531 0.675781 379.28125 0.675781 369.363281 L 0.675781 198.78125 L 85.324219 198.78125 C 87.3125 204.070312 89.960938 209.359375 93.265625 213.988281 L 64.164062 251.675781 L 61.515625 231.839844 C 60.199219 222.585938 52.257812 215.972656 43 217.296875 C 33.742188 217.957031 27.132812 226.550781 28.445312 235.148438 L 35.730469 294.652344 C 35.730469 299.28125 38.378906 303.246094 41.683594 305.890625 C 44.988281 308.535156 49.613281 309.859375 53.589844 309.199219 L 113.097656 301.925781 C 122.371094 300.601562 128.980469 292.667969 127.648438 283.414062 C 127.648438 278.785156 125.003906 274.816406 121.699219 272.171875 C 118.394531 269.527344 114.429688 268.203125 109.792969 268.867188 L 89.960938 271.511719 Z M 344.566406 190.183594 L 185.183594 92.332031 L 154.765625 147.871094 C 164.023438 153.820312 170.632812 163.738281 173.28125 174.316406 L 213.617188 174.316406 L 199.0625 159.769531 C 195.757812 156.464844 194.441406 152.496094 194.441406 147.871094 C 194.441406 143.238281 195.757812 139.273438 199.0625 135.96875 C 205.691406 129.355469 216.261719 129.355469 222.214844 135.96875 L 264.539062 178.28125 C 267.847656 181.589844 269.175781 185.554688 269.175781 190.183594 C 269.175781 194.8125 267.1875 198.777344 264.539062 202.085938 L 222.214844 244.398438 C 215.605469 251.011719 205.015625 251.011719 199.0625 244.398438 C 192.453125 237.789062 192.453125 227.210938 199.0625 221.257812 L 212.957031 207.375 L 167.984375 207.375 C 164.023438 214.648438 157.398438 221.257812 150.128906 225.226562 L 184.511719 290.019531 L 343.234375 212.664062 C 352.492188 208.035156 353.167969 195.472656 344.566406 190.183594 Z M 344.566406 190.183594 "/>
  </g>
</svg>

<svg xmlns="http://www.w3.org/2000/svg" viewBox="0 0 351 383"><path d="M63.504 131.344l25.129 32.398c-3.309 5.95-5.281 13.223-5.281 20.496H.676V13.656c0-9.918 10.59-16.527 19.847-11.238L174.61 87.707l-31.078 54.215c-4.636-1.984-9.258-2.645-14.55-2.645-5.293 0-9.93 1.325-14.551 2.645l-24.47-31.734 19.833 2.644c3.977.66 8.602-.66 11.906-3.305 3.305-2.644 5.293-6.613 5.95-11.242.675-9.254-5.278-17.191-14.551-18.512L53.59 72.5c-3.98-.66-8.602.66-11.906 3.305-3.305 3.308-5.293 7.273-5.954 11.242l-7.28 59.504c-1.317 9.258 5.292 17.851 13.89 19.176 9.262.66 17.203-5.29 18.52-14.547zm58.195 98.515c2.645.66 4.633.66 7.281.66 2.649 0 5.954 0 9.258-.66l36.371 64.793-154.086 85.953c-9.257 5.29-19.847-1.324-19.847-11.242V198.781h84.648c1.989 5.29 4.637 10.578 7.942 15.207l-29.102 37.688-2.648-19.836c-1.317-9.254-9.258-15.867-18.516-14.543-9.258.66-15.867 9.254-14.555 17.851l7.285 59.504c0 4.63 2.649 8.594 5.954 11.239 3.304 2.644 7.93 3.968 11.906 3.308l59.508-7.273c9.273-1.324 15.882-9.258 14.55-18.512 0-4.629-2.644-8.598-5.949-11.242-3.304-2.645-7.27-3.969-11.906-3.305l-19.832 2.645zm222.867-39.675L185.184 92.332l-30.418 55.54c9.257 5.948 15.867 15.866 18.515 26.444h40.336l-14.554-14.546c-3.305-3.305-4.622-7.274-4.622-11.899 0-4.633 1.317-8.598 4.621-11.902 6.63-6.614 17.2-6.614 23.153 0l42.324 42.312c3.309 3.309 4.637 7.274 4.637 11.903 0 4.629-1.988 8.593-4.637 11.902l-42.324 42.312c-6.61 6.614-17.2 6.614-23.153 0-6.609-6.609-6.609-17.187 0-23.14l13.895-13.883h-44.973c-3.96 7.273-10.586 13.883-17.855 17.852l34.383 64.793 158.722-77.356c9.258-4.629 9.934-17.191 1.332-22.48zm0 0"/></svg>
